trunk/src/lximediacenter/resources/img/glossary.svg

<?xml version="1.0" encoding="UTF-8" standalone="no"?>
<svg
   xmlns:dc="http://purl.org/dc/elements/1.1/"
   xmlns:cc="http://creativecommons.org/ns#"
   xmlns:rdf="http://www.w3.org/1999/02/22-rdf-syntax-ns#"
   xmlns:svg="http://www.w3.org/2000/svg"
   xmlns="http://www.w3.org/2000/svg"
   xmlns:xlink="http://www.w3.org/1999/xlink"
   xmlns:sodipodi="http://sodipodi.sourceforge.net/DTD/sodipodi-0.dtd"
   xmlns:inkscape="http://www.inkscape.org/namespaces/inkscape"
   height="60"
   width="60"
   _SVGFile__filename="oldscale/mimetypes/man.svg"
   version="1.0"
   y="0"
   x="0"
   id="svg1"
   sodipodi:version="0.32"
   inkscape:version="0.48.1 r9760"
   sodipodi:docname="glossary.svg">
  <sodipodi:namedview
     id="base"
     pagecolor="#ffffff"
     bordercolor="#666666"
     borderopacity="1.0"
     inkscape:pageopacity="0.0"
     inkscape:pageshadow="2"
     inkscape:zoom="7.7572197"
     inkscape:cx="41.138812"
     inkscape:cy="26.497089"
     inkscape:window-width="1024"
     inkscape:window-height="699"
     inkscape:window-x="180"
     inkscape:window-y="139"
     inkscape:current-layer="svg1"
     showgrid="false"
     inkscape:window-maximized="0" />
  <defs
     id="defs3">
    <linearGradient
       id="linearGradient900">
      <stop
         style="stop-color: #000000;stop-opacity: 1.0;"
         id="stop901"
         offset="0" />
      <stop
         style="stop-color:#ffffff;stop-opacity:1;"
         id="stop902"
         offset="1" />
    </linearGradient>
    <linearGradient
       xlink:href="#linearGradient900"
       id="linearGradient903" />
    <linearGradient
       xlink:href="#linearGradient900"
       id="linearGradient904" />
    <linearGradient
       xlink:href="#linearGradient900"
       id="linearGradient905" />
    <linearGradient
       xlink:href="#linearGradient900"
       id="linearGradient906" />
    <linearGradient
       xlink:href="#linearGradient900"
       id="linearGradient907" />
  </defs>
  <path
     style="font-size:12.000000;fill:none;fill-opacity:1.0000000;fill-rule:evenodd;stroke:#ffffff;stroke-width:8.1250000;stroke-linecap:round;stroke-linejoin:round;stroke-miterlimit:4.0000000;stroke-opacity:1.0000000;"
     d="M 6.6825975,4.6879105 C 5.5772035,4.6879105 4.6873015,5.5841475 4.6873015,6.6974115 L 4.6873015,53.302589 C 4.6873015,54.415849 5.5772035,55.312089 6.6825975,55.312089 L 53.317398,55.312089 C 54.422798,55.312089 55.312698,54.415849 55.312698,53.302589 L 55.312698,6.6974115 C 55.312698,5.5841475 54.422798,4.6879105 53.317398,4.6879105 L 6.6825975,4.6879105 z "
     id="path1097" />
  <path
     style="font-size:12;fill: #ffffff;fill-rule:evenodd;stroke-width:3.124999;stroke-linecap:round;stroke-linejoin:round;"
     fill-opacity="1.0"
     d="M 6.682599 4.687911 C 5.577205 4.687911 4.687303 5.584148 4.687303 6.697411 L 4.687303 53.30259 C 4.687303 54.41585 5.577205 55.31209 6.682599 55.31209 L 53.3174 55.31209 C 54.4228 55.31209 55.3127 54.41585 55.3127 53.30259 L 55.3127 6.697411 C 55.3127 5.584148 54.4228 4.687911 53.3174 4.687911 L 6.682599 4.687911 z "
     id="rect812" />
  <g
     style="font-size:12px"
     transform="matrix(1.1611682,0,0,1.1611682,-4.6852652,-7.4771469)"
     id="g8345">
    <path
       style="fill:#ffffff;fill-opacity:1;fill-rule:evenodd;stroke:#000000;stroke-width:4.09961748;stroke-linecap:round;stroke-linejoin:round;stroke-miterlimit:4;stroke-opacity:1;stroke-dasharray:none"
       d="m 83.26089,9.086211 c -1.23925,0 -2.23691,0.997659 -2.23691,2.236909 l 0,36.57983 c 0,1.23925 0.99766,2.23691 2.23691,2.23691 l 20.85791,0 c 1.2392,0 2.2369,-0.99766 2.2369,-2.23691 l 0,-36.57983 c 0,-1.23925 -0.9977,-2.236909 -2.2369,-2.236909 l -20.85791,0 z"
       transform="matrix(0.725285,-0.340257,0,0.801133,-28.94646,39.09752)"
       id="rect602"
       inkscape:connector-curvature="0" />
    <path
       style="fill:#ffffff;fill-opacity:1;fill-rule:evenodd;stroke:#000000;stroke-width:4.09961748;stroke-linecap:round;stroke-linejoin:round;stroke-miterlimit:4;stroke-opacity:1;stroke-dasharray:none"
       d="m -78.93049,-59.79969 c -1.23925,0 -2.23691,0.99766 -2.23691,2.23691 l 0,36.57982 c 0,1.23925 0.99766,2.23691 2.23691,2.23691 l 20.85795,0 c 1.23925,0 2.23691,-0.99766 2.23691,-2.23691 l 0,-36.57982 c 0,-1.23925 -0.99766,-2.23691 -2.23691,-2.23691 l -20.85795,0 z"
       transform="matrix(-0.725285,-0.340257,0,0.801133,-28.94646,39.09752)"
       id="rect603"
       inkscape:connector-curvature="0" />
    <path
       style="fill:#ffffff;fill-opacity:1;fill-rule:evenodd;stroke:#000000;stroke-width:1.86559677;stroke-linecap:round;stroke-linejoin:round;stroke-miterlimit:4;stroke-opacity:1;stroke-dasharray:none"
       d="m 36.57881,33.59084 c -0.9874,-2.51522 -2.28771,-4.96503 -4.5403,-6.23221 -2.32628,-8.7e-4 -5.25419,0.22646 -8.08088,0.34829 -2.33472,1.37483 -3.54945,3.95973 -4.39333,6.61724"
       transform="matrix(1.338928,0.05491755,-0.05491755,1.338928,-5.714906,7.92581)"
       id="path849"
       inkscape:connector-curvature="0" />
    <path
       style="fill:#ffffff;fill-opacity:1;fill-rule:evenodd;stroke:#000000;stroke-width:3.20524049;stroke-linecap:round;stroke-linejoin:round;stroke-miterlimit:4;stroke-opacity:1;stroke-dasharray:none"
       d="m 31.85042,22.30134 c 0,6.80411 -5.52218,12.32629 -12.32629,12.32629 -6.80412,0 -12.326295,-5.52218 -12.326295,-12.32629 0,-6.80411 5.522175,-12.326289 12.326295,-12.326289 6.80411,0 12.32629,5.522179 12.32629,12.326289 z"
       transform="matrix(0.779971,-0.00162258,0.00162258,0.779971,14.3955,21.93795)"
       id="path716"
       inkscape:connector-curvature="0" />
  </g>
  <metadata
     id="metadata18">
    <RDF
       id="RDF19">
      <Work
         about=""
         id="Work20">
        <title
           id="title21">Part of the Flat Icon Collection (Thu Aug 26 14:40:35 2004)</title>
        <description
           id="description23" />
        <subject
           id="subject24">
          <Bag
             id="Bag25">
            <li
               id="li26" />
          </Bag>
        </subject>
        <publisher
           id="publisher27">
          <Agent
             about=""
             id="Agent28">
            <title
               id="title29" />
          </Agent>
        </publisher>
        <creator
           id="creator30">
          <Agent
             about=""
             id="Agent31">
            <title
               id="title32">Danny Allen</title>
          </Agent>
        </creator>
        <rights
           id="rights34">
          <Agent
             about=""
             id="Agent35">
            <title
               id="title36">Danny Allen</title>
          </Agent>
        </rights>
        <date
           id="date38" />
        <format
           id="format39">image/svg+xml</format>
        <type
           id="type41"
           resource="http://purl.org/dc/dcmitype/StillImage" />
        <license
           id="license42"
           resource="http://creativecommons.org/licenses/LGPL/2.1/">
          <date
             id="date43" />
        </license>
        <language
           id="language44">en</language>
      </Work>
    </RDF>
    <rdf:RDF>
      <cc:Work
         rdf:about="">
        <dc:format>image/svg+xml</dc:format>
        <dc:type
           rdf:resource="http://purl.org/dc/dcmitype/StillImage" />
      </cc:Work>
    </rdf:RDF>
  </metadata>
</svg>

<?xml version="1.0" encoding="UTF-8" standalone="no"?>
<!DOCTYPE svg PUBLIC "-//W3C//DTD SVG 20010904//EN"
"http://www.w3.org/TR/2001/REC-SVG-20010904/DTD/svg10.dtd">
<svg
   height="60"
   width="60"
   _SVGFile__filename="oldscale/mimetypes/man.svg"
   version="1.0"
   y="0"
   x="0"
   id="svg1"
   sodipodi:version="0.32"
   inkscape:version="0.40"
   sodipodi:docname="man.svg"
   sodipodi:docbase="/home/danny/work/flat/SVG/mono/scalable/mimetypes"
   xmlns="http://www.w3.org/2000/svg"
   xmlns:cc="http://web.resource.org/cc/"
   xmlns:inkscape="http://www.inkscape.org/namespaces/inkscape"
   xmlns:sodipodi="http://sodipodi.sourceforge.net/DTD/sodipodi-0.dtd"
   xmlns:rdf="http://www.w3.org/1999/02/22-rdf-syntax-ns#"
   xmlns:dc="http://purl.org/dc/elements/1.1/"
   xmlns:xlink="http://www.w3.org/1999/xlink">
  <sodipodi:namedview
     id="base"
     pagecolor="#ffffff"
     bordercolor="#666666"
     borderopacity="1.0"
     inkscape:pageopacity="0.0"
     inkscape:pageshadow="2"
     inkscape:zoom="7.7572197"
     inkscape:cx="41.138812"
     inkscape:cy="20.367745"
     inkscape:window-width="1024"
     inkscape:window-height="699"
     inkscape:window-x="0"
     inkscape:window-y="0"
     inkscape:current-layer="svg1" />
  <defs
     id="defs3">
    <linearGradient
       id="linearGradient900">
      <stop
         style="stop-color: #000000;stop-opacity: 1.0;"
         id="stop901"
         offset="0" />
      <stop
         style="stop-color:#ffffff;stop-opacity:1;"
         id="stop902"
         offset="1" />
    </linearGradient>
    <linearGradient
       xlink:href="#linearGradient900"
       id="linearGradient903" />
    <linearGradient
       xlink:href="#linearGradient900"
       id="linearGradient904" />
    <linearGradient
       xlink:href="#linearGradient900"
       id="linearGradient905" />
    <linearGradient
       xlink:href="#linearGradient900"
       id="linearGradient906" />
    <linearGradient
       xlink:href="#linearGradient900"
       id="linearGradient907" />
  </defs>
  <path
     style="font-size:12.000000;fill:none;fill-opacity:1.0000000;fill-rule:evenodd;stroke:#ffffff;stroke-width:8.1250000;stroke-linecap:round;stroke-linejoin:round;stroke-miterlimit:4.0000000;stroke-opacity:1.0000000;"
     d="M 6.6825975,4.6879105 C 5.5772035,4.6879105 4.6873015,5.5841475 4.6873015,6.6974115 L 4.6873015,53.302589 C 4.6873015,54.415849 5.5772035,55.312089 6.6825975,55.312089 L 53.317398,55.312089 C 54.422798,55.312089 55.312698,54.415849 55.312698,53.302589 L 55.312698,6.6974115 C 55.312698,5.5841475 54.422798,4.6879105 53.317398,4.6879105 L 6.6825975,4.6879105 z "
     id="path1097" />
  <path
     style="font-size:12;fill: #ffffff;fill-rule:evenodd;stroke-width:3.124999;stroke-linecap:round;stroke-linejoin:round;"
     fill-opacity="1.0"
     d="M 6.682599 4.687911 C 5.577205 4.687911 4.687303 5.584148 4.687303 6.697411 L 4.687303 53.30259 C 4.687303 54.41585 5.577205 55.31209 6.682599 55.31209 L 53.3174 55.31209 C 54.4228 55.31209 55.3127 54.41585 55.3127 53.30259 L 55.3127 6.697411 C 55.3127 5.584148 54.4228 4.687911 53.3174 4.687911 L 6.682599 4.687911 z "
     id="rect812" />
  <g
     style="font-size:12;"
     transform="translate(0.12899,0)"
     id="g8345">
    <path
       style="fill:#ffffff;fill-rule:evenodd;stroke:#000000;stroke-width:4.0996177;stroke-linecap:round;stroke-linejoin:round;stroke-miterlimit:4.0000000;stroke-dasharray:none;"
       d="M 83.26089 9.086211 C 82.02164 9.086211 81.02398 10.08387 81.02398 11.32312 L 81.02398 47.90295 C 81.02398 49.1422 82.02164 50.13986 83.26089 50.13986 L 104.1188 50.13986 C 105.358 50.13986 106.3557 49.1422 106.3557 47.90295 L 106.3557 11.32312 C 106.3557 10.08387 105.358 9.086211 104.1188 9.086211 L 83.26089 9.086211 z "
       stroke-opacity="1.0"
       fill-opacity="1.0"
       transform="matrix(0.725285,-0.340257,0,0.801133,-28.94646,39.09752)"
       id="rect602" />
    <path
       style="fill:#ffffff;fill-rule:evenodd;stroke:#000000;stroke-width:4.0996177;stroke-linecap:round;stroke-linejoin:round;stroke-miterlimit:4.0000000;stroke-dasharray:none;"
       d="M -78.93049 -59.79969 C -80.16974 -59.79969 -81.1674 -58.80203 -81.1674 -57.56278 L -81.1674 -20.98296 C -81.1674 -19.74371 -80.16974 -18.74605 -78.93049 -18.74605 L -58.07254 -18.74605 C -56.83329 -18.74605 -55.83563 -19.74371 -55.83563 -20.98296 L -55.83563 -57.56278 C -55.83563 -58.80203 -56.83329 -59.79969 -58.07254 -59.79969 L -78.93049 -59.79969 z "
       stroke-opacity="1.0"
       fill-opacity="1.0"
       transform="matrix(-0.725285,-0.340257,0,0.801133,-28.94646,39.09752)"
       id="rect603" />
    <path
       style="fill:#ffffff;fill-rule:evenodd;stroke:#000000;stroke-width:1.8655968;stroke-linecap:round;stroke-linejoin:round;stroke-miterlimit:4.0000000;stroke-dasharray:none;"
       d="M 36.57881 33.59084 C 35.59141 31.07562 34.2911 28.62581 32.03851 27.35863 C 29.71223 27.35776 26.78432 27.58509 23.95763 27.70692 C 21.62291 29.08175 20.40818 31.66665 19.5643 34.32416 "
       stroke-opacity="1.0"
       fill-opacity="1.0"
       transform="matrix(1.338928,5.491755e-2,-5.491755e-2,1.338928,-5.714906,7.92581)"
       id="path849" />
    <path
       style="fill:#ffffff;fill-rule:evenodd;stroke:#000000;stroke-width:3.2052404;stroke-linecap:round;stroke-linejoin:round;stroke-miterlimit:4.0000000;stroke-dasharray:none;"
       d="M 31.85042 22.30134 C 31.85042 29.10545 26.32824 34.62763 19.52413 34.62763 C 12.72001 34.62763 7.197835 29.10545 7.197835 22.30134 C 7.197835 15.49723 12.72001 9.975051 19.52413 9.975051 C 26.32824 9.975051 31.85042 15.49723 31.85042 22.30134 z "
       stroke-opacity="1.0"
       fill-opacity="1.0"
       transform="matrix(0.779971,-1.622585e-3,1.622585e-3,0.779971,14.3955,21.93795)"
       id="path716" />
  </g>
  <metadata
     id="metadata18">
    <RDF
       id="RDF19">
      <Work
         about=""
         id="Work20">
        <title
           id="title21">Part of the Flat Icon Collection (Thu Aug 26 14:40:35 2004)</title>
        <description
           id="description23" />
        <subject
           id="subject24">
          <Bag
             id="Bag25">
            <li
               id="li26" />
          </Bag>
        </subject>
        <publisher
           id="publisher27">
          <Agent
             about=""
             id="Agent28">
            <title
               id="title29" />
          </Agent>
        </publisher>
        <creator
           id="creator30">
          <Agent
             about=""
             id="Agent31">
            <title
               id="title32">Danny Allen</title>
          </Agent>
        </creator>
        <rights
           id="rights34">
          <Agent
             about=""
             id="Agent35">
            <title
               id="title36">Danny Allen</title>
          </Agent>
        </rights>
        <date
           id="date38" />
        <format
           id="format39">image/svg+xml</format>
        <type
           id="type41"
           resource="http://purl.org/dc/dcmitype/StillImage" />
        <license
           id="license42"
           resource="http://creativecommons.org/licenses/LGPL/2.1/">
          <date
             id="date43" />
        </license>
        <language
           id="language44">en</language>
      </Work>
    </RDF>
    <rdf:RDF
       id="RDF9850">
      <cc:Work
         rdf:about=""
         id="Work9851">
        <dc:format
           id="format9852">image/svg+xml</dc:format>
        <dc:type
           id="type9854"
           rdf:resource="http://purl.org/dc/dcmitype/StillImage" />
      </cc:Work>
    </rdf:RDF>
  </metadata>
  <path
     style="font-size:12;fill:none;fill-rule:evenodd;stroke: #000000;stroke-width:3.124999;stroke-linecap:round;stroke-linejoin:round;"
     d="M 6.682599 4.687911 C 5.577205 4.687911 4.687303 5.584148 4.687303 6.697411 L 4.687303 53.30259 C 4.687303 54.41585 5.577205 55.31209 6.682599 55.31209 L 53.3174 55.31209 C 54.4228 55.31209 55.3127 54.41585 55.3127 53.30259 L 55.3127 6.697411 C 55.3127 5.584148 54.4228 4.687911 53.3174 4.687911 L 6.682599 4.687911 z "
     stroke-opacity="1.0"
     id="path8350" />
</svg>
